X:344
T: Vergebliche Warnung (80b), S. 219
N: T0233
O: Luxemburg
S: Singendes Volk, Esch-Alzette 1937 posth.]
N: Rosport, fff Maria Schiltz, 8.3.1934
R: Liebeslieder]
M: 3/4
L: 1/8
K: F
F | FCFAcA | AGG2z
G | GABcdc | cBA2z
F | FCFAcf | d2z3
A | dAc2cB | A2z3

@@@ Tune index: 8398
